X:1
T:Terence, My Son
M:2/4
L:1/8
K:C
B/2-c/2| d2 Bc| d2 e2| d2-c-B| A2 GA| B2B-c| d2 Bc| d2 e2| d2c-B| A3/2 G/2 AB|\
 G2G-A| B2 BB|c-BB-A| A2 AB| c2 cc| B2 Bc| d2 Be| d2 cB| A2 GA/2-B/2|\
 G3||
